svgs/birdnet.svg

<svg xmlns="http://www.w3.org/2000/svg" viewBox="0 0 192 192"><path d="m16.5 101.939 113.779 22.57 21.679 17.975m9.621-6.416-9.622 6.418-13.449 8.975M82.091 40.539 58.979 53.825l.129 3.494-7.723 6.014 11.456 1.891v19.109l9.921 12.287 15.693 14.872 32.744-3.198 5.14.099 49.161 28.18-41.324-33.653 15.867 1.626-11.537-10.108 17.543-1.103-71.342-39.317Zm2.23 67.548-3.387 6.128m22.158-3.688-5.079 6.842" fill="none" stroke="#000" stroke-width="8" stroke-linecap="round" stroke-linejoin="round"/><path d="m116.663 80.838-31.456-1.069-2.043-15.861Z" fill="none" stroke="#000" stroke-width="8" stroke-linecap="round" stroke-linejoin="round"/></svg>

<svg
    xmlns="http://www.w3.org/2000/svg"
    viewBox="0 0 192 192"
    id="vector">
    <path
        id="path"
        d="M 16.5 101.939 L 130.279 124.509 L 151.958 142.484 M 161.579 136.068 L 151.957 142.486 L 138.508 151.461 M 82.091 40.539 L 58.979 53.825 L 59.108 57.319 L 51.385 63.333 L 62.841 65.224 L 62.841 84.333 L 72.762 96.62 L 88.455 111.492 L 121.199 108.294 L 126.339 108.393 L 175.5 136.573 L 134.176 102.92 L 150.043 104.546 L 138.506 94.438 L 156.049 93.335 L 84.707 54.018 Z M 84.321 108.087 L 80.934 114.215 M 103.092 110.527 L 98.013 117.369"
        fill="none"
        stroke="#000000"
        stroke-width="8"
        stroke-linecap="round"
        stroke-linejoin="round"/>
    <path
        id="path_1"
        d="M 116.663 80.838 L 85.207 79.769 L 83.164 63.908 Z"
        fill="none"
        stroke="#000000"
        stroke-width="8"
        stroke-linecap="round"
        stroke-linejoin="round"/>
</svg>
